X: 17400
T: High Road To Lyon, The
R: reel
M: 4/4
K: Amajor
cefe ~a3f|ecAB cB~B2|cefe ~a3f|ecBd cAA2|
cefe ~a3f|ecBc ~A2FA|EFAB cAec|BcAB cAAB:|
|:~A2FA EAFA|BcAB cBBc|~A2FA EAFA|Bcec BAAB|
~A2FA EABc|defg ~a3f|ecAB cAec|BcAB cAA2:|
~a3f fece|~a3f eAce|~a3f fece|aebe afef|
~a3f fece|afec ~A2FA|EFAB cAec|BcAB cAA2||
~a3f fece|~a3f eAce|aebe aebe|aebe afef|
~a3f fece|afec ~A2FA|EFAB cAec|BcAB cAA2||
|:ceec dffd|ceec BcAB|ce~e2 faaf|bafe cBAB|
ceec dffd|cABc ~A2FA|EFAB cAec|BcAB cAA2:|

